!!!id: bhatk3185s
!!!vol: 3
!!!page: 185
!!!sthayee: Shuddha surana ko
!!!raag: bihag
!!!taal: teentaal
!!!tempo: madhyalaya
**kern
!!data: // >PG  M  G  M/  P  P  >S'N  -/  S'  -  S'  S'/  N  >DN  >DP  P/
==1
gq
4e
4f
4e
4f
=
4g
4g
ccq
2b
=
2cc
4cc
4cc
=
4b
aq
4b
aq
4g
4g
!!data: // >mP  -  >PG  M/  P  -  >PG  M/  G  -  -  -/ S  -  -  S/
==2
f#q
2g
gq
4e
4f
=
2g
gq
4e
4f
=
1e
=
2.c
4c
!!data: // >SN, -  P,  P,/ N,  -  S  -/  >SP  P  >PG  M/  [G  -  S]  S/
==3
cq
2B
4G
4G
=
2B
2c
=
cq
4g
4g
gq
4e
4f
=
2eH
4ch
4c
!!data: // >SN  N  >Dm  P/  >PG  M  >MP  M/  G  -  -  -/  S  -  -  S/ 
==4
cq
4b
4b
aq
4f#
4g
=
gq
4e
4f
fq
4g
4f
=
1e
=
2.c
4c
==
*-
